X: 73
T: la Fille du Coupeur de Paille
O: France
R: branle (maraichin)
Z: 2014 John Chambers <jc:trillian.mit.edu>
M: 2/4
L: 1/16
K: G
|: "G"G2d2 d2B2 | d2cB "D7"A4 |  "G"G2d2 d2B2 | d4 "D7"A4 :|
|: "D7"A3B c2B2 | A2B2  "G"G4 | "D7"A2d2 c2B2 | A4  "G"G4 :|
|::: "Em"G4 F2E2 | "D"F2G2 A4 | "Em"G2AB A2G2 |1,3 "D"E2F2 E2D2 :|2,4 "D7"E2F2 "G"G4 :|

% A French tune using an in-body key change
%
%%sep 1 1 500

